pix_core/e/fullscreen.svg

<!DOCTYPE svg PUBLIC "-//W3C//DTD SVG 1.1//EN" "http://www.w3.org/Graphics/SVG/1.1/DTD/svg11.dtd" [
	<!ENTITY ns_flows "http://ns.adobe.com/Flows/1.0/">
]><svg xmlns="http://www.w3.org/2000/svg" width="16" height="16" viewBox="0 0 16 16" preserveAspectRatio="xMinYMid meet" overflow="visible"><path d="M3.8 2.2l3.3 3.3-1.6 1.7-3.3-3.4-2.2 2.2v-6h6l-2.2 2.2zm3.4 8.3l-3.3 3.3 2.1 2.2h-6v-6l2.2 2.2 3.3-3.3 1.7 1.6zm8.8-10.5v6l-2.2-2.2-3.3 3.3-1.7-1.6 3.3-3.3-2.1-2.2h6zm-2.2 12.2l2.2-2.2v6h-6l2.2-2.2-3.3-3.3 1.7-1.7 3.2 3.4z" fill="#1F4D87"/></svg>

<!DOCTYPE svg PUBLIC "-//W3C//DTD SVG 1.1//EN" "http://www.w3.org/Graphics/SVG/1.1/DTD/svg11.dtd" [
	<!ENTITY ns_flows "http://ns.adobe.com/Flows/1.0/">
]><svg xmlns="http://www.w3.org/2000/svg" width="16" height="16" viewBox="0 0 16 16" preserveAspectRatio="xMinYMid meet" overflow="visible"><path d="M3.8 2.2l3.3 3.3-1.6 1.7-3.3-3.4L0 6V0h6L3.8 2.2zm3.4 8.3l-3.3 3.3L6 16H0v-6l2.2 2.2 3.3-3.3 1.7 1.6zM16 0v6l-2.2-2.2-3.3 3.3-1.7-1.6 3.3-3.3L10 0h6zm-2.2 12.2L16 10v6h-6l2.2-2.2-3.3-3.3 1.7-1.7 3.2 3.4z" fill="#999"/></svg>
